Font-Source/Egyptian2/svg-my/14213.svg

<?xml version="1.0" encoding="UTF-8" standalone="no"?>
<svg
   width="18.07"
   height="17.98"
   version="1.1"
   id="svg1"
   sodipodi:docname="14213.svg"
   inkscape:version="1.4.2 (f4327f4, 2025-05-13)"
   xmlns:inkscape="http://www.inkscape.org/namespaces/inkscape"
   xmlns:sodipodi="http://sodipodi.sourceforge.net/DTD/sodipodi-0.dtd"
   xmlns="http://www.w3.org/2000/svg"
   xmlns:svg="http://www.w3.org/2000/svg">
  <defs
     id="defs1" />
  <sodipodi:namedview
     id="namedview1"
     pagecolor="#ffffff"
     bordercolor="#666666"
     borderopacity="1.0"
     inkscape:showpageshadow="2"
     inkscape:pageopacity="0.0"
     inkscape:pagecheckerboard="0"
     inkscape:deskcolor="#d1d1d1"
     inkscape:zoom="41.991102"
     inkscape:cx="9.037629"
     inkscape:cy="8.9899998"
     inkscape:window-width="1680"
     inkscape:window-height="998"
     inkscape:window-x="-8"
     inkscape:window-y="-8"
     inkscape:window-maximized="1"
     inkscape:current-layer="svg1" />
  <path
     id="path2"
     style="fill:#000000;stroke:none"
     d="M 5.75 0 L 5.5800781 0.80078125 L 5.3808594 0.5390625 L 5.0292969 0.83984375 L 5.25 1.0996094 L 4.4609375 1.1308594 L 4.5507812 1.4101562 L 5.4707031 1.3496094 L 5.6992188 1.609375 L 4.9003906 1.6503906 L 5.0097656 1.9296875 L 5.9199219 1.8496094 L 6.140625 2.109375 L 5.3398438 2.1699219 L 5.4609375 2.4296875 L 6.359375 2.3691406 L 6.5800781 2.6308594 L 5.7890625 2.6894531 L 5.9003906 2.9394531 L 6.8105469 2.890625 L 9.3398438 5.8046875 L 5.1601562 10.550781 L 5.1992188 9.5703125 L 5.1191406 9.4902344 L 4.4707031 11.710938 L 6.5800781 10.789062 L 6.4902344 10.689453 L 5.5097656 10.880859 L 9.6425781 6.15625 L 13.759766 10.900391 L 12.800781 10.710938 L 12.689453 10.789062 L 14.810547 11.730469 L 14.169922 9.5097656 L 14.070312 9.5800781 L 14.109375 10.580078 L 9.9472656 5.8085938 L 12.5 2.890625 L 13.429688 2.9609375 L 13.539062 2.6894531 L 12.740234 2.6308594 L 12.949219 2.390625 L 13.849609 2.4492188 L 13.980469 2.1699219 L 13.189453 2.1308594 L 13.410156 1.8691406 L 14.310547 1.9492188 L 14.429688 1.6699219 L 13.609375 1.609375 L 13.849609 1.3496094 L 14.759766 1.4296875 L 14.869141 1.1503906 L 14.070312 1.109375 L 14.300781 0.84960938 L 13.939453 0.56054688 L 13.720703 0.8203125 L 13.570312 0.01953125 L 13.330078 0.16992188 L 13.5 1.0800781 L 13.279297 1.3203125 L 13.130859 0.51953125 L 12.869141 0.66992188 L 13.060547 1.5800781 L 12.830078 1.8203125 L 12.689453 1.0390625 L 12.429688 1.1894531 L 12.609375 2.0800781 L 12.390625 2.3300781 L 12.220703 1.5605469 L 11.980469 1.6894531 L 12.169922 2.5898438 L 9.6425781 5.4589844 L 7.140625 2.5898438 L 7.3398438 1.6894531 L 7.0800781 1.5390625 L 6.9296875 2.3203125 L 6.7109375 2.0800781 L 6.9003906 1.1699219 L 6.640625 1.0195312 L 6.4902344 1.8203125 L 6.2695312 1.5605469 L 6.4394531 0.66992188 L 6.1894531 0.51953125 L 6.0292969 1.3007812 L 5.8300781 1.0605469 L 5.9902344 0.15039062 L 5.75 0 z " />
  <path
     style="fill:#000000; stroke:none"
     d="m 12.71,12.47 -3.26,0.01 3.26,2.91 z m 5.36,-0.65 v 0.65 h -4.72 v 5.51 h -0.66 v -1.7 L 8.47,12.47 H 5.83 L 5.21,13.56 H 3.25 L 2.66,12.47 Q 1.29,12.47 0.49,11.4 -0.32,10.34 0.2,9.38 0.72,8.42 1.69,8.9 2.66,9.38 2,10.6 1.33,11.82 3.2,11.82 v 0 0 z M 5.21,12.47 H 3.24 l 0.31,0.51 H 4.94 Z M 1.44,11.6 Q 1.24,10.73 1.52,10.2 1.81,9.67 1.39,9.44 0.96,9.21 0.67,9.77 0.39,10.34 1.44,11.6 Z"
     id="path1" />
</svg>

<?xml version="1.0" encoding="UTF-8" standalone="no"?>
<svg
   width="18.07"
   height="17.98"
   version="1.1"
   id="svg1"
   sodipodi:docname="14213.svg"
   inkscape:version="1.4.2 (f4327f4, 2025-05-13)"
   xmlns:inkscape="http://www.inkscape.org/namespaces/inkscape"
   xmlns:sodipodi="http://sodipodi.sourceforge.net/DTD/sodipodi-0.dtd"
   xmlns="http://www.w3.org/2000/svg"
   xmlns:svg="http://www.w3.org/2000/svg">
  <defs
     id="defs1" />
  <sodipodi:namedview
     id="namedview1"
     pagecolor="#ffffff"
     bordercolor="#666666"
     borderopacity="1.0"
     inkscape:showpageshadow="2"
     inkscape:pageopacity="0.0"
     inkscape:pagecheckerboard="0"
     inkscape:deskcolor="#d1d1d1"
     inkscape:zoom="41.991102"
     inkscape:cx="9.0376289"
     inkscape:cy="8.9899998"
     inkscape:window-width="1680"
     inkscape:window-height="998"
     inkscape:window-x="-8"
     inkscape:window-y="-8"
     inkscape:window-maximized="1"
     inkscape:current-layer="svg1" />
  <path
     style="fill:#000000;stroke:none"
     d="M 5.03,0.84 5.25,1.1 4.46,1.13 4.55,1.41 5.47,1.35 5.7,1.61 4.9,1.65 5.01,1.93 5.92,1.85 6.14,2.11 5.34,2.17 5.46,2.43 6.36,2.37 6.58,2.63 5.79,2.69 5.9,2.94 6.81,2.89 l 6.95,8.01 -0.96,-0.19 -0.11,0.08 2.12,0.94 -0.64,-2.22 -0.1,0.07 0.04,1 L 7.14,2.59 7.34,1.69 7.08,1.54 6.93,2.32 6.71,2.08 6.9,1.17 6.64,1.02 6.49,1.82 6.27,1.56 6.44,0.67 6.19,0.52 6.03,1.3 5.83,1.06 5.99,0.15 5.75,0 5.58,0.8 5.38,0.54 Z M 13.94,0.56 13.72,0.82 13.57,0.02 13.33,0.17 13.5,1.08 13.28,1.32 13.13,0.52 12.87,0.67 13.06,1.58 12.83,1.82 12.69,1.04 12.43,1.19 12.61,2.08 12.39,2.33 12.22,1.56 11.98,1.69 12.17,2.59 5.16,10.55 5.2,9.57 5.12,9.49 4.47,11.71 6.58,10.79 6.49,10.69 5.51,10.88 12.5,2.89 l 0.93,0.07 0.11,-0.27 -0.8,-0.06 0.21,-0.24 0.9,0.06 0.13,-0.28 -0.79,-0.04 0.22,-0.26 0.9,0.08 0.12,-0.28 -0.82,-0.06 0.24,-0.26 0.91,0.08 0.11,-0.28 -0.8,-0.04 0.23,-0.26 z"
     id="path2" />
  <path
     style="fill:#000000; stroke:none"
     d="m 12.71,12.47 -3.26,0.01 3.26,2.91 z m 5.36,-0.65 v 0.65 h -4.72 v 5.51 h -0.66 v -1.7 L 8.47,12.47 H 5.83 L 5.21,13.56 H 3.25 L 2.66,12.47 Q 1.29,12.47 0.49,11.4 -0.32,10.34 0.2,9.38 0.72,8.42 1.69,8.9 2.66,9.38 2,10.6 1.33,11.82 3.2,11.82 v 0 0 z M 5.21,12.47 H 3.24 l 0.31,0.51 H 4.94 Z M 1.44,11.6 Q 1.24,10.73 1.52,10.2 1.81,9.67 1.39,9.44 0.96,9.21 0.67,9.77 0.39,10.34 1.44,11.6 Z"
     id="path1" />
</svg>
